X: 1
T: Hawthorne Hedge
M: 6/8
L: 1/8
R: jig
K: Dmaj
A,DD FAA|d/e/fd edB|AFA BAF|dAF EDB,|
A,DD FAA|d/e/fd edB|AFA B/c/de|1fdc d2d:|2fdc dag||
|:~f3 faf|edB B2d|AFE E3|AFE E2g|
~f3 faf|edB BdB|AFE EDB,|1~A,3 Dde:|2~A,3 D2D||
